X: 9
T: Wallop The Potlid
R: jig
M: 6/8
L: 1/8
K: Gmaj
A|:BGG AGE|DEG AGA|BAB cBc|dgg fdc|
BGG AGE|DEG AGA|BdB cAF|AGF G2 A:|
|:~B3 cBc|dgg fdc|~B3 cBc|dgf g2a|
|bgg age|dge dBA|GAB AGA|BGF G2 A :|


Tune 1454	Setting 14845

